site/plugins/site/icons/font.svg

<svg viewBox="0 0 16 16" width="16" height="16" class="icon icon-font">
  <path d="M2.61550642,8.85217405 L2.46314308,9.24480266 C2.35375346,9.52218347 2.29905948,9.71751914 2.29905948,9.83081552 C2.29905948,10.0222473 2.36352025,10.1560523 2.49244372,10.2322343 C2.62136719,10.3084164 2.83232971,10.3465068 3.12533761,10.3465068 L3.12533761,10.9969811 L0.5,10.9969811 L0.5,10.3465068 C1.00006681,10.3465068 1.42003849,9.92067509 1.75992765,9.06899881 L4.20360127,2.91000366 L4.88923631,2.91000366 L7.37979096,9.06313868 C7.62591759,9.6725951 7.84860025,10.0388495 8.04784562,10.1619128 C8.24709099,10.2849761 8.43851994,10.3465068 8.62213822,10.3465068 L8.62213822,10.9969811 L4.67827168,10.9969811 L4.67827168,10.3465068 C5.03378793,10.3465068 5.25451723,10.3123231 5.34046621,10.2439546 C5.42641519,10.1755861 5.46938904,10.0886617 5.46938904,9.98317887 C5.46938904,9.88941634 5.43422862,9.76635487 5.36390673,9.61399077 L5.28772506,9.43232678 L5.05918004,8.85217405 L2.61550642,8.85217405 Z M2.86749195,8.17825926 L4.79547425,8.17825926 L3.80511252,5.80490718 L2.86749195,8.17825926 Z M12.167516,10.4871499 C11.8823217,10.6942088 11.5844348,10.8495007 11.2738464,10.9530301 C10.963258,11.0565596 10.6380242,11.1083236 10.298135,11.1083236 C9.84885623,11.1083236 9.5119022,11.006749 9.28726282,10.8035969 C9.06262343,10.6004447 8.95030542,10.3484617 8.95030542,10.0476403 C8.95030542,9.62180214 9.17494144,9.24480431 9.62422021,8.91663546 C10.073499,8.58846662 10.8860954,8.22514228 12.0620337,7.82665155 L12.0620337,7.39300203 C12.0620337,7.08436705 11.9878061,6.88610135 11.8393488,6.79819898 C11.6908915,6.71029661 11.5150894,6.66634609 11.3119372,6.66634609 C10.819684,6.66634609 10.546214,6.8460549 10.4915192,7.20547792 C10.4524515,7.45160455 10.3743173,7.63033668 10.2571141,7.74167968 C10.1399109,7.85302268 9.95824877,7.90869335 9.71212214,7.90869335 C9.48943614,7.90869335 9.31265736,7.84911597 9.1817805,7.72995942 C9.05090364,7.61080288 8.98546619,7.47113788 8.98546619,7.31096023 C8.98546619,6.94763044 9.22572906,6.63900009 9.70626201,6.38505991 C10.186795,6.13111974 10.8294493,6.00415156 11.6342443,6.00415156 C12.0835231,6.00415156 12.4595442,6.03149855 12.7623191,6.08619336 C13.0650939,6.14088816 13.3092635,6.24246271 13.4948351,6.39092004 C13.6804068,6.53937738 13.8034683,6.69564591 13.8640232,6.85973033 C13.9245782,7.02381475 13.9548552,7.24649741 13.9548552,7.52778499 L13.9548552,9.75463385 C13.9548552,10.0906162 14.0564298,10.2586049 14.2595819,10.2586049 C14.4353867,10.2586049 14.546728,10.1492169 14.5936093,9.93043771 L15.0799999,9.93043771 C15.0682796,10.3328352 14.9208012,10.6297454 14.6375602,10.8211773 C14.3543193,11.0126091 14.0154119,11.1083236 13.6208279,11.1083236 C12.9019819,11.1083236 12.4175494,10.9012677 12.167516,10.4871499 Z M12.0620337,9.85425604 L12.0620337,8.48298595 C11.5189924,8.70957872 11.1644582,8.91468117 10.9984204,9.09829945 C10.8323826,9.28191773 10.7493649,9.47139333 10.7493649,9.66673192 C10.7493649,9.81518926 10.7981988,9.94899419 10.8958681,10.0681507 C10.9935374,10.1873073 11.122459,10.2468847 11.2826366,10.2468847 C11.4232804,10.2468847 11.558062,10.2136776 11.6869855,10.1472625 C11.8159089,10.0808473 11.9409238,9.98317951 12.0620337,9.85425604 Z"></path>
</svg>

<svg width="16" height="16" class="icon icon-font"><path d="M2.616 8.852l-.153.393c-.11.277-.164.473-.164.586 0 .191.065.325.193.401.13.076.34.115.633.115v.65H.5v-.65c.5 0 .92-.426 1.26-1.278L4.204 2.91h.685l2.49 6.153c.247.61.47.976.669 1.099.2.123.39.185.574.185v.65H4.678v-.65c.356 0 .577-.035.662-.103a.32.32 0 00.13-.26.943.943 0 00-.106-.37l-.076-.182-.229-.58H2.616zm.251-.674h1.928l-.99-2.373-.938 2.373zm9.3 2.31a3.288 3.288 0 01-.893.465c-.31.104-.636.155-.976.155-.45 0-.786-.101-1.01-.304a.978.978 0 01-.338-.756c0-.426.225-.803.674-1.131.45-.329 1.262-.692 2.438-1.09v-.434c0-.309-.074-.507-.223-.595a1.016 1.016 0 00-.527-.132c-.492 0-.766.18-.82.54-.04.246-.118.424-.235.536-.117.111-.299.167-.545.167-.223 0-.4-.06-.53-.179a.55.55 0 01-.197-.419c0-.363.24-.672.721-.926.48-.254 1.123-.38 1.928-.38.45 0 .826.026 1.128.081.303.055.547.156.733.305.185.148.308.305.369.469.06.164.09.386.09.668v2.227c0 .336.102.504.306.504.175 0 .287-.11.334-.329h.486c-.012.403-.16.7-.442.891-.284.192-.623.287-1.017.287-.719 0-1.203-.207-1.453-.62zm-.105-.634V8.483c-.543.227-.898.432-1.064.615-.166.184-.249.373-.249.569 0 .148.05.282.147.401.098.12.226.179.387.179.14 0 .275-.033.404-.1.129-.066.254-.164.375-.293z"/></svg>
